packages/icons/src/SVG/export.svg

<!-- Generated by IcoMoon.io -->
<svg version="1.1" xmlns="http://www.w3.org/2000/svg" width="12" height="12" viewBox="0 0 12 12">
<title>export</title>
<path d="M5 1h-4v10h4v-1h-3v-8h3v-1z"></path>
<path d="M3 5h5v-2l4 3-4 3v-2h-5v-2z"></path>
</svg>

<svg width="12" height="12" viewBox="0 0 12 12" fill="none" xmlns="http://www.w3.org/2000/svg">
<path d="M5 1H1V11H5V10H2L2 2H5V1Z" fill="#4C505B"/>
<path d="M3 5H8L8 3L12 6L8 9V7H3V5Z" fill="#4C505B"/>
</svg>
